X: 1049
T: Philander.
%R: march
B: Henry Playford "Apollo's Banquet", London 1687 (5th Edition)
F: https://archive.org/details/apollosbanquetco01rugg
Z: 2017 John Chambers <jc:trillian.mit.edu>
M: C|
L: 1/8
K: G
% - - - - - - - - - -
D2 |\
EFG2 BAB2 | d4 g4 | e2(dB) (cB)(AG) | A6 D2 |\
EFG2 BABc | d4 z2f2 | gfed d3^c | d6 :|
|: g2 |\
f3e fga2 | d3d d2cB | e3d cBAG | F4 z2cB |\
c2e2 e2dc | Bcd2 d3D | E2cB A3G | G6 |]
% - - - - - - - - - -

%%sep 1 1 500
%%sep 1 1 500

